X: 3
T: The Concert
R: reel
M: 4/4
L: 1/8
K: Ador
|:A2 GB AE E2|GABG A3B|dBAB GFGB|d2eB dBAc|
BAGB AE E2|GABG A2 (3Bcd|ea a2 gedB|1GBdB BAdB:|2GBdB BAA2||
|:ea a2 bgag|edef gedB|degb a2ga|bgab ged2|
ea a2 ea a2|edef gedB|g3e d2 ge|1dBGA BAA2:|2dBGA BAdB||


Tune 1474	Setting 1474

